svgs/sharp-light/square-bolt.svg

<svg xmlns="http://www.w3.org/2000/svg" viewBox="0 0 448 512"><!--! Font Awesome Pro 6.6.0 by @fontawesome - https://fontawesome.com License - https://fontawesome.com/license (Commercial License) Copyright 2024 Fonticons, Inc. --><path d="M32 64l0 384 384 0 0-384L32 64zM0 32l32 0 384 0 32 0 0 32 0 384 0 32-32 0L32 480 0 480l0-32L0 64 0 32zm264 80l8 0 18.4 0-2.6 18.3L274.4 224l45.6 0 16 0 0 16 0 8 0 6.6-4.7 4.7-136 136-4.7 4.7-6.6 0-8 0-18.4 0 2.6-18.3L173.6 288 128 288l-16 0 0-16 0-8 0-6.6 4.7-4.7 136-136 4.7-4.7 6.6 0zM158.6 256l33.4 0 18.4 0-2.6 18.3-10.5 73.8L289.4 256 256 256l-18.4 0 2.6-18.3 10.5-73.8L158.6 256z"/></svg>

<svg xmlns="http://www.w3.org/2000/svg" viewBox="0 0 448 512"><!--! Font Awesome Pro 6.4.0 by @fontawesome - https://fontawesome.com License - https://fontawesome.com/license (Commercial License) Copyright 2023 Fonticons, Inc. --><path d="M32 64V448H416V64H32zM0 32H32 416h32V64 448v32H416 32 0V448 64 32zm264 80h8 18.4l-2.6 18.3L274.4 224H320h16v16 8 6.6l-4.7 4.7-136 136-4.7 4.7H184h-8H157.6l2.6-18.3L173.6 288H128 112V272v-8-6.6l4.7-4.7 136-136 4.7-4.7H264zM158.6 256H192h18.4l-2.6 18.3-10.5 73.8L289.4 256H256 237.6l2.6-18.3 10.5-73.8L158.6 256z"/></svg>
